X:1
T:Lega, legami
T:Lega, legami
T:Claudio Saracini
T:Source : Le terze Musische per cantar e sonar---Venetia---A.Vincenti---1620. Editor : André Vierendeels (15/01/16).
T:Notes : Original clefs : C1, F4 Figures above the BC are notated in original print Dedicated to Rev.Mons.Mariano Tantucci The original print was damaged (perhaps during WWII), necessitating an editorial addendum m 25
T:©
T:©
T:©
C:Claudio Saracini
Z:©
%%score 1 2
L:1/8
Q:1/4=96
M:4/4
K:F
V:1 treble nm="Soprano" snm="S"
V:2 bass nm="MusicXML Part"
V:1
 z Bcd _e3 d | c4 B4 | d>e f2 g3 f | e4 d4 | z2 z c d_eee | d4 c4 | z ABc d4- | d6 G2 | A8 | G8 :: %10
w: Le- ga, le- ga- m'il|co- re,|strin- gi- mi l'al- m'A-|mo- re,|cep- pi lac- ci ca-|te- ne|stra- tij tor- men-|* ti'e|pe-|ne.|
 =B8 | c8 | d8 | c8 | ^c8 | d8 | ^d8 | d8 | c8 | _e8 | A8 | G8 :: d6 AB | c8 | G4 B4 | FEFG AGAB | %26
w: So|sten-|go'in|pa-|ce'l|duo-|i|pia-|cer|m'ap-|por-|ta.|Si de la|mia|pri- gion|bel- * * * * * * *|
 c6 AG | G4 F4 | _e4 dcBc | d2 G/A/B/G/ A2 =B2 | c6 =B2 | c8 | d4 cBAB | c2 B2 AGFG | A4 ^FGAF | %35
w: * la'è la|por- ta,|si de la mia pri-|gion bel- * * * la'è la|por- *|ta,|si de la mia pri-|gion, si de la mia pri-|gion bel- * * *|
 GABG cBAG | A8 | G8 :| %38
w: la'è _ _ _ la _ _ _|por-|ta.|
V:2
"^BC" G,4 _E,2 B,,2 | F,,4 B,,4- | B,,4 G,,2 A,,2- | A,,4 D,4 | F,4- F, C,3 | G,,4 C,4 | %6
 ^F,4- F,A,,=B,,C, | D,4 =B,,4 | D,8 | G,,8 :: G,2 F,2 E,2 D,2 | C,2 D,2 E,2 C,2 | %12
 B,,2 C,2 D,2 E,2 | F,,2 G,,2 A,,2 F,,2 | A,,2 =B,,2 ^C,2 A,,2 | D,2 E,2 ^F,2 D,2 | %16
 =B,,2 ^C,2 ^D,2 B,,2 |"^b" B,,2 C,2 D,2 E,2 | F,,2 G,,2 A,,2 B,,2 | C,2 D,2 _E,2 C,2 | %20
 D,E,^F,G, D,4 | G,,8 :: G,2 D,E, F,4 | C,B,,C,D, _E,4- | E,4 B,,A,,B,,C, | D,8 | %26
 A,,G,,A,,B,, C,4- | C,4 F,,4 | C4 B,A,G,A, | B,2 _E,2 F,2 G,2 | _A,4 G,4 | C,8 | B,4 A,G,F,G, | %33
 _A,2 G,2 F,E,D,E, | F,4 D,4 | _E,4 C,4 | D,8 | G,,8 :| %38

